X: 7641
T: Colclough's
R: hornpipe
M: 4/4
K: Gmajor
(3(DEF)|:G2 GF GABc|dBcA GABc|dBgf edcB|cAAG AcBA|
G2 GF GABc|dBcA Gedc|BdBG AcAF|1 GBAF G2 (3(DEF):|2 GBAF G2 (3def||
|:gdBd gbaf|gdBd egfe|dBcA Bdeg|f2d2d2 zf|
gdBd gdge|dBGB cAec|ecdB cAFG|1 GBAF G3 z:|2 GBAF G2 dc||
|:BGdG BGdG|cAeA cAeA|BGdG BGdB|AGFE D2dc|
BGdG BGdG|cAeA cAea|gfge dBcA|1 GdBA G2 (3def:|2 GBAF G4||

